src/assets/2010.svg

<svg width="2539" height="2395" fill="none" xmlns="http://www.w3.org/2000/svg">
  <g filter="url(#filter0_d)">
    <path d="M1650.29 668.207c-39.38-39.752 74.77-125.163-59.4-163.751C1411.86 452.971 371.376.468 371.376.468L25.306 587.489s542.14 703.161 585.576 751.401c43.436 48.25 232.718 205.78 361.109 179.96 128.389-25.82 145.129-44.48 156.219-29.4 11.08 15.08-101.29 142.78-27.15 221.58 74.13 78.8 209.99 85.01 306.59 129.51 96.6 44.5-110.81 409.69 277.24 472.41 388.05 62.71 339.78-271.02 367.49-320.15 27.7-49.14 111.64 25.95 155.08 0 43.43-25.96 37.61-125.44 87.98-161.95 50.37-36.51 66.13-19.19 133.68-42.12 67.54-22.94 98.18-170.98 79.18-205.54-19-34.55-59.98-89.56-69.96-109.22-9.98-19.66-12.82-32.52-24.64-64.34-11.83-31.83 19.15-56.25 46.11-112.8 26.95-56.55 57.87-132.07-13.27-195.67-71.14-63.61-169.9 20.56-212.42-42.6-42.52-63.151 6.46-107.649-88.03-147.901-94.49-40.253-275.37 86.695-313.92 56.907-38.56-29.788 18.36-101.824-8.35-140.204-26.72-38.38-134.15-119.403-173.53-159.155z" fill="#fff"/>
  </g>
  <defs>
    <filter id="filter0_d" x=".307" y=".468" width="2538.54" height="2394.3" filterUnits="userSpaceOnUse" color-interpolation-filters="sRGB">
      <feFlood flood-opacity="0" result="BackgroundImageFix"/>
      <feColorMatrix in="SourceAlpha" values="0 0 0 0 0 0 0 0 0 0 0 0 0 0 0 0 0 0 127 0"/>
      <feOffset dy="49"/>
      <feGaussianBlur stdDeviation="12.5"/>
      <feColorMatrix values="0 0 0 0 0 0 0 0 0 0 0 0 0 0 0 0 0 0 0.25 0"/>
      <feBlend in2="BackgroundImageFix" result="effect1_dropShadow"/>
      <feBlend in="SourceGraphic" in2="effect1_dropShadow" result="shape"/>
    </filter>
  </defs>
</svg>

<svg width="2539" height="2395" viewBox="0 0 2539 2395" fill="none" xmlns="http://www.w3.org/2000/svg">
<g filter="url(#filter0_d)">
<path d="M1650.29 668.207C1610.91 628.455 1725.06 543.044 1590.89 504.456C1411.86 452.971 371.376 0.467773 371.376 0.467773L25.3066 587.489C25.3066 587.489 567.446 1290.65 610.882 1338.89C654.318 1387.14 843.6 1544.67 971.991 1518.85C1100.38 1493.03 1117.12 1474.37 1128.21 1489.45C1139.29 1504.53 1026.92 1632.23 1101.06 1711.03C1175.19 1789.83 1311.05 1796.04 1407.65 1840.54C1504.25 1885.04 1296.84 2250.23 1684.89 2312.95C2072.94 2375.66 2024.67 2041.93 2052.38 1992.8C2080.08 1943.66 2164.02 2018.75 2207.46 1992.8C2250.89 1966.84 2245.07 1867.36 2295.44 1830.85C2345.81 1794.34 2361.57 1811.66 2429.12 1788.73C2496.66 1765.79 2527.3 1617.75 2508.3 1583.19C2489.3 1548.64 2448.32 1493.63 2438.34 1473.97C2428.36 1454.31 2425.52 1441.45 2413.7 1409.63C2401.87 1377.8 2432.85 1353.38 2459.81 1296.83C2486.76 1240.28 2517.68 1164.76 2446.54 1101.16C2375.4 1037.55 2276.64 1121.72 2234.12 1058.56C2191.6 995.409 2240.58 950.911 2146.09 910.659C2051.6 870.406 1870.72 997.354 1832.17 967.566C1793.61 937.778 1850.53 865.742 1823.82 827.362C1797.1 788.982 1689.67 707.959 1650.29 668.207Z" fill="white"/>
</g>
<defs>
<filter id="filter0_d" x="0.306641" y="0.467773" width="2538.54" height="2394.3" filterUnits="userSpaceOnUse" color-interpolation-filters="sRGB">
<feFlood flood-opacity="0" result="BackgroundImageFix"/>
<feColorMatrix in="SourceAlpha" type="matrix" values="0 0 0 0 0 0 0 0 0 0 0 0 0 0 0 0 0 0 127 0"/>
<feOffset dy="49"/>
<feGaussianBlur stdDeviation="12.5"/>
<feColorMatrix type="matrix" values="0 0 0 0 0 0 0 0 0 0 0 0 0 0 0 0 0 0 0.25 0"/>
<feBlend mode="normal" in2="BackgroundImageFix" result="effect1_dropShadow"/>
<feBlend mode="normal" in="SourceGraphic" in2="effect1_dropShadow" result="shape"/>
</filter>
</defs>
</svg>
